X: 20744
T: Johnny Gorman's
R: barndance
M: 4/4
K: Gmajor
D2 G2 GBAG|FGAB c2dc|B2GB (3ABA FG|(3ABA GA FA d2|
D2 G2 GBAG|FGAB c2dc|(3BcB GB (3ABA FG|A2 G2 G4:|
|:d2Bd gdB2|cBcd e2dc|B2GB (3ABA FG|(3ABA GA FA d2|
d2Bd gdB2|cBcd e2dc|B2GB (3ABA FG|(3ABA G2 G4:|

